X:0609
T:The Braes of Aberarder.
M:C
L:1/8
Q:1/4=120
N:bar 2 of second part printed |(gf)(ed) g>B BAA>f|
I: :: ||
Z:Jack Campin * www.campin.me.uk * 2009
K:G
e|d>Gc>G Bc`dTe| d<G        (e/d/)(c/B/) BAAe |dGBG      BcdTe    | dGBA                     AGG:|
f|g>de>d ef`gTa|(g/f/)(e/d/) g>B         BAA>f|g>de>d    e/f/g Ta2|(g/f/)(e/d/) (d/e/)(f/d/) g2df|
  g>ef>d e>cd>B| c<aB<g                  BAAd |B/c/d Te2 B/c/d  g2| GGTB>A                   AGG|]
<end>
<start>
